svgs/regular/frog.svg

<svg xmlns="http://www.w3.org/2000/svg" viewBox="0 0 576 512"><!-- Font Awesome Pro 6.0.0-alpha2 by @fontawesome - https://fontawesome.com License - https://fontawesome.com/license (Commercial License) --><path d="M576.002 190.001C576.002 168.5 564.252 149 545.502 138.75C516.877 123 479.627 109 460.002 102.125C448.627 61.75 412.002 32 368.002 32C325.002 32 289.127 60.375 276.877 99.375C120.252 120.5 -0.498 254.5 0.002 417C0.127 451.875 29.127 480 64.002 480H368.002C376.877 480 384.002 472.875 384.002 464C384.002 446.375 369.627 432 352.002 432H322.252L341.127 406.5C350.377 392.625 355.877 377.25 358.252 361.75L469.627 480H560.002C568.877 480 576.002 472.875 576.002 464C576.002 446.375 561.627 432 544.002 432H490.377L391.877 327.375L546.252 240.625C564.627 230.375 576.002 211 576.002 190.001ZM522.752 198.75L348.002 294.875C340.502 279.5 329.752 265.375 315.127 254.5C275.502 224.75 220.127 224.75 180.377 254.5L145.627 280.5C135.002 288.5 132.877 303.5 140.877 314.125C148.752 324.75 163.877 326.875 174.377 319L209.252 292.875C231.877 275.75 263.627 275.875 286.252 292.875C313.502 313.375 320.127 351.5 301.877 378.875L262.502 432H64.002C55.377 432 48.002 425 48.002 416.875C47.627 281.125 148.752 165.125 283.252 146.875L313.502 142.875L322.627 113.75C329.002 93.5 347.252 80 368.002 80C389.127 80 408.002 94.375 413.752 115.125L420.502 139L444.002 147.375C462.377 153.875 496.877 166.75 522.502 180.75C525.877 182.75 528.002 186.125 528.002 190.001C528.002 193.625 526.001 197 522.752 198.75ZM368.002 120C354.752 120 344.002 130.75 344.002 144S354.752 168 368.002 168S392.002 157.25 392.002 144S381.252 120 368.002 120Z"/></svg>

<svg xmlns="http://www.w3.org/2000/svg" viewBox="0 0 576 512"><!-- Font Awesome Pro 5.15.1 by @fontawesome - https://fontawesome.com License - https://fontawesome.com/license (Commercial License) --><path d="M576 189.94c0-21.4-11.72-40.95-30.48-51.23-28.68-15.71-65.94-29.69-85.51-36.62C448.64 61.74 411.98 32 368 32c-42.97 0-78.91 28.42-91.16 67.35C120.27 120.52-.49 254.49 0 416.98.11 451.89 29.08 480 64 480h304c8.84 0 16-7.16 16-16 0-17.67-14.33-32-32-32h-29.74l18.87-25.48c9.29-13.93 14.7-29.24 17.15-44.82L469.62 480H560c8.84 0 16-7.16 16-16 0-17.67-14.33-32-32-32h-53.63l-98.52-104.68 154.44-86.65A58.183 58.183 0 0 0 576 189.94zm-53.19 8.87l-174.79 96.05c-7.56-15.39-18.32-29.45-32.92-40.4-39.66-29.72-95-29.75-134.72 0l-34.78 26.09c-10.59 7.95-12.75 23-4.78 33.61 7.97 10.59 23 12.77 33.59 4.8l34.78-26.09c22.72-17.08 54.44-17.02 77.09 0 27.28 20.45 33.81 58.67 15.59 86.06L262.56 432H64c-8.65 0-15.97-6.95-16-15.17-.41-135.69 100.74-251.73 235.27-269.92l30.21-4.08 9.15-29.08C328.98 93.56 347.21 80 368 80c21.15 0 39.99 14.43 45.81 35.1l6.74 23.93 23.44 8.3c18.33 6.49 52.91 19.47 78.47 33.47 3.47 1.9 5.54 5.32 5.54 9.14 0 3.67-1.99 7.07-5.19 8.87zM368 120c-13.25 0-24 10.74-24 24 0 13.25 10.75 24 24 24s24-10.75 24-24c0-13.26-10.75-24-24-24z"/></svg>
